X: 1
T: The Wetland
C: Dave Bartley (©2000)
R: March
M: 4/4
L: 1/8
K: Am
|:"Am" A2 c2 e3 e |"G" d2 B2 g4 | G2 B2 d2 G2 |"D" ^F2 G2 A2 B2 |
  "Am" A2 c2 e3 e |"G" d2 B2 g4 | G2 A2 B2 G2 |"D" A4 A4 :|
|:"Am" A3 E AB c2-| c2 B2 c2 e2 |"G" d3 c BA G2-| G2 B2 c2 e2 |
   d3 c BA G2-| G2 B2 c2 d2 |"F" e3 d cB A2-| A2 E2 "Em"cBAG :|
